!!!OTL: TOCHTER ZION FREUE DICH
!!!ARE: Europa, Mitteleuropa, Deutschland
!!!SCT: B0750
!!!YEM: Copyright 1995, estate of Helmut Schaffrath.
**kern
*ICvox
*Ivox
*M4/4
*k[b-e-a-]
*E-:
=1
{2b-
4.g
8a-
=2
2b-
2e-}
=3
{8f
8g
8a-
8b-
4a-
4g
=4
2.f
4r}
=5
{8g
8a-
8b-
8cc
4b-
4b-
=6
2ee-
2b-}
=7
{4a-
4g
4.f
8e-
=8
2.e-
4r}
=9
{8g
8f
8g
8a-
4g
4g
=10
2f
2e-}
=11
{4a-
4g
4f
4e-
=12
2.d
4r}
=13
{8cc
8bn
8cc
8dd
4cc
4dd
=14
2ee-
2cc}
=15
{4dd
8cc
8b-
4.an
8b-
=16
2.b-
4r}
==
!!!AGN: Preis - Lied, religioes
!!!ONB: ESAC (Essen Associative Code) Database: BOEHME
!!!AMT: simple quadruple
!!!AIN: vox
!!!EED: Helmut Schaffrath
!!!EEV: 1.0
*-
